X:1
T:The People Who in Darkness Walked
T:Text: Isaiah 9:2-3, 6-7; vers. John Morison, 1781, alt. Tune: Nikolaus Herman, 1554; harm. Johann S. Bach, c. 1738, in Cantata 151
T:CM with repeat LOBT GOTT, IHR CHRISTEN www.hymnary.org//text/the_people_that_in_darkness_sat_a_glor
T:The People Who in Darkness Walked
T:This hymn is in the public domain. You may freely use this score for personal and congregational worship. If you reproduce the score, please credit Hymnary.org as the source. 
T:This hymn is in the public domain. You may freely use this score for personal and congregational worship. If you reproduce the score, please credit Hymnary.org as the source. 
Z:This hymn is in the public domain. You may freely use this score for personal and congregational worship. If you reproduce the score, please credit Hymnary.org as the source.
%%score ( 1 2 ) ( 3 4 )
L:1/8
M:4/4
K:Eb
V:1 treble nm="SOPRANO ALTO" snm="S. A."
V:2 treble 
V:3 bass nm="TENOR BASS" snm="T. B."
V:4 bass 
V:1
"^1""^2""^3""^4""^5" E2 | B2 B2 B2 B2 | c2 BA G2 F2 | G=A B2 c2 c2 | B6 B2 | B2 B2 B2 GA | %6
w: The|peo- ple who in|dark- ness * walked have|seen * a glo- rious|light; the|heav- enly dawn broke *|
w: To|greet you, Sun of|Right- eous- * ness, the|gath- * ering na- tions|come, re-|joic- ing as when *|
w: To|us the prom- ised|child is * born, to|us * a son is|given; and|on his shoul- ders *|
w: His|name shall be the|Prince of * Peace for-|ev- * er more a-|dored, the|Won- der- ful, the *|
w: His|peace and right- eous|gov- ern- * ment shall|o- * ver all ex-|tend; on|judg- ment and on *|
 B2 AG F2 B2 |1 A2 G2 F2 F2 | (EFGA B2) B2 | A2 GF G2 F2 | E6 x2 |] %11
w: forth on * those who|dwelt in death and|night, * * * * who|dwelt in * death and|night.|
w: reap- ers * bring their|har- vest trea- sures|home, * * * * their|har- vest * trea- sures|home.|
w: ev- er * rests all|power in earth and|heaven, * * * * all|power in * earth and|heaven.|
w: Coun- sel- * or, the|Might- y God and|Lord, * * * * the|Might- y * God and|Lord.|
w: jus- tice * based, his|reign shall nev- er|end, * * * * his|reign shall _ nev- er|end.|
V:2
 B,2 | B,C D2 E2 E2 | E2 D2 E2 F2 | E2 D2 CD E2 | D6 F2 | E2 D2 E2 E2 | E2 FE D2 D2 |1 %7
 E F2 (E E)D D2 | (E4 D2) E2 | E2 E2 E2 D2 | B,6 x2 |] %11
V:3
 G,2 | F,2 B,A, G,A, B,2 | A,G, F,B, B,2 B,2 | E,2 F,2 G,2 =A,2 | F,6 B,A, | G,2 A,2 B,2 C2 | %6
 B,2 C2 F,2 G,2 |1 G,F, G,A, B,2 A,2 | (G,2 C2 B,2) G,2 | A,B, C2 B,2 B,A, | G,6 x2 |] %11
V:4
 E,2 | D,2 B,,2 E,F, G,2 | A,,2 B,,2 E,2 D,2 | C,2 B,,2 E,2 F,2 | B,,6 D,2 | E,2 F,2 G,2 C,2 | %6
 G,,2 A,,2 B,,2 G,,2 |1 C,D, E,2 B,,2 =B,,2 | (C,D,E,F, G,2) E,2 | C,2 B,,A,, B,,2 B,,2 | %10
 [E,,E,]6 x2 |] %11

